; generated by PrusaSlicer 2.5.2+win64 on 2023-05-10 at 20:16:47 UTC

; 

; external perimeters extrusion width = 0.42mm
; perimeters extrusion width = 0.44mm
; infill extrusion width = 0.44mm
; solid infill extrusion width = 0.44mm
; top infill extrusion width = 0.40mm
; first layer extrusion width = 0.42mm

; external perimeters extrusion width = 0.42mm
; perimeters extrusion width = 0.44mm
; infill extrusion width = 0.44mm
; solid infill extrusion width = 0.44mm
; top infill extrusion width = 0.40mm
; first layer extrusion width = 0.42mm

; external perimeters extrusion width = 0.42mm
; perimeters extrusion width = 0.44mm
; infill extrusion width = 0.44mm
; solid infill extrusion width = 0.44mm
; top infill extrusion width = 0.40mm
; first layer extrusion width = 0.42mm

; external perimeters extrusion width = 0.42mm
; perimeters extrusion width = 0.44mm
; infill extrusion width = 0.44mm
; solid infill extrusion width = 0.44mm
; top infill extrusion width = 0.40mm
; first layer extrusion width = 0.42mm

; external perimeters extrusion width = 0.42mm
; perimeters extrusion width = 0.44mm
; infill extrusion width = 0.44mm
; solid infill extrusion width = 0.44mm
; top infill extrusion width = 0.40mm
; first layer extrusion width = 0.42mm

; external perimeters extrusion width = 0.42mm
; perimeters extrusion width = 0.44mm
; infill extrusion width = 0.44mm
; solid infill extrusion width = 0.44mm
; top infill extrusion width = 0.40mm
; first layer extrusion width = 0.42mm

; external perimeters extrusion width = 0.42mm
; perimeters extrusion width = 0.44mm
; infill extrusion width = 0.44mm
; solid infill extrusion width = 0.44mm
; top infill extrusion width = 0.40mm
; first layer extrusion width = 0.42mm

; external perimeters extrusion width = 0.42mm
; perimeters extrusion width = 0.44mm
; infill extrusion width = 0.44mm
; solid infill extrusion width = 0.44mm
; top infill extrusion width = 0.40mm
; first layer extrusion width = 0.42mm

; external perimeters extrusion width = 0.42mm
; perimeters extrusion width = 0.44mm
; infill extrusion width = 0.44mm
; solid infill extrusion width = 0.44mm
; top infill extrusion width = 0.40mm
; first layer extrusion width = 0.42mm

M107
;TYPE:Custom
G90 ; use absolute coordinates
M83 ; extruder relative mode
M140 S60 ; set final bed temp
M104 S150 ; set temporary nozzle temp to prevent oozing during homing
G4 S10 ; allow partial nozzle warmup
G28 ; home all axis
G1 Z50 F240
G1 X2 Y10 F3000
M104 S210 ; set final nozzle temp
M190 S60 ; wait for bed temp to stabilize
M109 S210 ; wait for nozzle temp to stabilize
G1 Z0.28 F240
G92 E0
G1 Y140 E10 F1500 ; prime the nozzle
G1 X2.3 F5000
G92 E0
G1 Y10 E10 F1200 ; prime the nozzle
G92 E0
G21 ; set units to millimeters
G90 ; use absolute coordinates
M83 ; use relative distances for extrusion
; Filament gcode
M107
;LAYER_CHANGE
;Z:0.2
;HEIGHT:0.2
;BEFORE_LAYER_CHANGE
G92 E0
;0.2


G1 E-5 F3600
G1 Z.2 F9000
;AFTER_LAYER_CHANGE
;0.2
G1 X57.171 Y49.4
G1 E5 F2400
M204 S500
;TYPE:Skirt/Brim
;WIDTH:0.42
G1 F1200
G1 X57.794 Y48.777 E.02764
G1 X59.037 Y47.823 E.04911
G1 X59.801 Y47.382 E.02764
G1 X61.732 Y46.624 E.06506
G1 X88.95 Y39.924 E.87887
G1 X150.88 Y28.622 E1.97384
G1 X152.944 Y28.346 E.06529
G1 X153.825 Y28.346 E.02764
G1 X155.724 Y28.596 E.06003
G1 X157.671 Y29.556 E.06807
G1 X162.857 Y34.743 E.22997
G1 X163.817 Y36.69 E.06807
G1 X164.067 Y38.588 E.06003
G1 X166.613 Y134.986 E3.02355
G1 X166.312 Y137.586 E.08206
G1 X166.084 Y138.438 E.02764
G1 X165.175 Y140.607 E.07375
G1 X133.407 Y203.005 E2.19541
G1 X132.337 Y204.237 E.05115
G1 X130.397 Y204.85 E.06379
G1 X107.397 Y204.85 E.72115
G1 X105.919 Y204.509 E.04757
G1 X52.869 Y178.677 E1.85005
G1 X51.618 Y177.63 E.05115
G1 X50.97 Y175.641 E.06558
G1 X50.971 Y157.641 E.56438
G1 X52.168 Y115.547 E1.32037
G1 X54.719 Y55.555 E1.8827
G1 X54.949 Y53.705 E.05846
G1 X55.177 Y52.853 E.02764
G1 X55.777 Y51.406 E.04911
G1 X56.218 Y50.643 E.02764
G1 X57.135 Y49.448 E.04723
G1 E-3.5 F3600
;WIPE_START
G1 F7200
G1 X57.794 Y48.777 E-.44698
G1 X59.037 Y47.823 E-.74403
G1 X59.464 Y47.577 E-.23399
;WIPE_END
G1 E-.075 F3600
G1 X60.782 Y59.452 F9000
G1 E5 F2400
;TYPE:Perimeter
;WIDTH:0.419999
G1 F1200
G1 X60.72 Y59.326 E.00441
G1 X59.826 Y58.162 E.04601
G1 X59.334 Y56.974 E.04033
G1 X59.166 Y55.698 E.04033
G1 X59.334 Y54.423 E.04033
G1 X59.826 Y53.235 E.04032
G1 X60.609 Y52.215 E.04033
G1 X61.63 Y51.432 E.04033
G1 X62.815 Y50.941 E.04023
G1 X64.129 Y50.776 E.04151
G1 X65.368 Y50.94 E.0392
G1 X66.556 Y51.432 E.04033
G1 X67.577 Y52.215 E.04032
G1 X68.36 Y53.235 E.04033
G1 X68.852 Y54.423 E.04033
G1 X69.02 Y55.698 E.04033
G1 X68.852 Y56.974 E.04033
G1 X68.36 Y58.162 E.04033
G1 X67.623 Y59.122 E.03795
G1 X67.342 Y59.542 E.01585
G1 X67.271 Y59.9 E.01143
G1 X67.271 Y86.497 E.83393
G1 X67.312 Y86.771 E.0087
G1 X67.466 Y87.071 E.01056
G1 X68.36 Y88.235 E.04601
G1 X68.852 Y89.423 E.04033
G1 X68.995 Y90.513 E.03444
G1 X68.995 Y90.884 E.01166
G1 X68.852 Y91.974 E.03444
G1 X68.36 Y93.162 E.04033
G1 X67.577 Y94.182 E.04033
G1 X66.556 Y94.965 E.04032
G1 X65.368 Y95.457 E.04033
G1 X64.093 Y95.625 E.04032
G1 X62.818 Y95.457 E.04033
G1 X61.63 Y94.965 E.04033
G1 X60.609 Y94.182 E.04033
G1 X59.826 Y93.162 E.04033
G1 X59.334 Y91.974 E.04032
G1 X59.166 Y90.698 E.04033
G1 X59.334 Y89.423 E.04033
G1 X59.826 Y88.235 E.04033
G1 X60.685 Y87.116 E.04422
G1 X60.874 Y86.771 E.01233
G1 X60.915 Y86.497 E.0087
G1 X60.915 Y60.316 E.8209
G1 X60.882 Y59.654 E.02078
G1 X60.809 Y59.506 E.00518
G1 X60.455 Y59.638 F9000
G1 F1200
G1 X60.421 Y59.556 E.00279
G1 X59.497 Y58.352 E.04757
G1 X58.967 Y57.072 E.04344
G1 X58.786 Y55.698 E.04344
G1 X58.967 Y54.325 E.04344
G1 X59.497 Y53.045 E.04344
G1 X60.34 Y51.946 E.04344
G1 X61.439 Y51.102 E.04344
G1 X62.718 Y50.573 E.04338
G1 X64.13 Y50.396 E.04462
G1 X65.467 Y50.572 E.04227
G1 X66.746 Y51.102 E.04344
G1 X67.846 Y51.946 E.04344
G1 X68.689 Y53.045 E.04344
G1 X69.219 Y54.325 E.04344
G1 X69.4 Y55.698 E.04344
G1 X69.219 Y57.072 E.04344
G1 X68.689 Y58.352 E.04344
G1 X67.725 Y59.616 E.04984
G1 X67.649 Y59.9 E.00922
G1 X67.658 Y86.603 E.83725
G1 X67.765 Y86.841 E.0082
G1 X68.689 Y88.045 E.04757
G1 X69.219 Y89.325 E.04344
G1 X69.4 Y90.698 E.04344
G1 X69.219 Y92.072 E.04344
G1 X68.689 Y93.352 E.04344
G1 X67.846 Y94.451 E.04344
G1 X66.746 Y95.294 E.04344
G1 X65.467 Y95.825 E.04344
G1 X64.093 Y96.005 E.04344
G1 X62.719 Y95.825 E.04344
G1 X61.439 Y95.294 E.04344
G1 X60.34 Y94.451 E.04344
G1 X59.497 Y93.352 E.04344
G1 X58.967 Y92.072 E.04344
G1 X58.786 Y90.698 E.04344
G1 X58.967 Y89.325 E.04344
G1 X59.497 Y88.045 E.04344
G1 X60.488 Y86.728 E.05168
G1 X60.537 Y86.497 E.00741
G1 X60.537 Y60.67 E.80979
G1 X60.533 Y59.827 E.02645
G1 X60.478 Y59.693 E.00452
G1 X60.121 Y59.785 F9000
;TYPE:External perimeter
G1 F1200
G1 X59.168 Y58.542 E.04912
G1 X58.599 Y57.17 E.04655
G1 X58.406 Y55.698 E.04655
G1 X58.599 Y54.226 E.04655
G1 X59.168 Y52.855 E.04655
G1 X60.071 Y51.677 E.04655
G1 X61.249 Y50.773 E.04655
G1 X62.62 Y50.205 E.04653
G1 X64.131 Y50.016 E.04773
G1 X65.565 Y50.205 E.04535
G1 X66.937 Y50.773 E.04655
G1 X68.115 Y51.677 E.04655
G1 X69.018 Y52.855 E.04655
G1 X69.587 Y54.226 E.04655
G1 X69.78 Y55.698 E.04655
G1 X69.587 Y57.17 E.04655
G1 X69.018 Y58.542 E.04655
G1 X68.099 Y59.74 E.04733
G1 X68.026 Y59.9 E.00553
G1 X68.026 Y86.497 E.83393
G1 X68.065 Y86.612 E.0038
G1 X69.018 Y87.855 E.04912
G1 X69.587 Y89.226 E.04655
G1 X69.78 Y90.698 E.04655
G1 X69.587 Y92.17 E.04655
G1 X69.018 Y93.542 E.04655
G1 X68.115 Y94.72 E.04655
G1 X66.937 Y95.624 E.04655
G1 X65.565 Y96.192 E.04655
G1 X64.093 Y96.386 E.04655
G1 X62.621 Y96.192 E.04655
G1 X61.249 Y95.624 E.04655
G1 X60.071 Y94.72 E.04655
G1 X59.168 Y93.542 E.04655
G1 X58.599 Y92.17 E.04655
G1 X58.406 Y90.698 E.04655
G1 X58.599 Y89.226 E.04655
G1 X59.168 Y87.855 E.04655
G1 X60.087 Y86.657 E.04733
G1 X60.16 Y86.497 E.00553
G1 X60.16 Y59.9 E.83393
G1 X60.141 Y59.842 E.00192
G1 X60.351 Y59.457 F9000
G1 E-3.5 F3600
;WIPE_START
G1 F7200
G1 X59.168 Y58.542 E-.77124
G1 X58.641 Y57.271 E-.65376
;WIPE_END
G1 E-.075 F3600
G1 X62.101 Y91.16 F9000
G1 E5 F2400
;TYPE:Perimeter
G1 F1200
G1 X62.036 Y90.821 E.01082
G1 X62.085 Y90.247 E.01806
G1 X62.25 Y89.776 E.01565
G1 X62.551 Y89.331 E.01687
G1 X62.958 Y88.978 E.01687
G1 X63.442 Y88.743 E.01687
G1 X63.948 Y88.644 E.01618
G1 X64.489 Y88.677 E.017
G1 X65.015 Y88.855 E.0174
G1 X65.461 Y89.157 E.01687
G1 X65.813 Y89.563 E.01687
G1 X66.048 Y90.047 E.01687
G1 X66.15 Y90.575 E.01687
G1 X66.112 Y91.112 E.01687
G1 X65.936 Y91.621 E.01687
G1 X65.635 Y92.066 E.01686
G1 X65.228 Y92.418 E.01687
G1 X64.744 Y92.654 E.01687
G1 X64.216 Y92.756 E.01687
G1 X63.679 Y92.717 E.01687
G1 X63.171 Y92.542 E.01687
G1 X62.725 Y92.24 E.01687
G1 X62.373 Y91.834 E.01687
G1 X62.138 Y91.35 E.01687
G1 X62.113 Y91.219 E.00418
G1 X62.473 Y91.132 F9000
G1 F1200
G1 X62.448 Y91.063 E.00232
G1 X62.411 Y90.614 E.01411
G1 X62.495 Y90.171 E.01414
G1 X62.672 Y89.793 E.0131
G1 X63 Y89.421 E.01555
G1 X63.315 Y89.204 E.012
G1 X63.586 Y89.092 E.00919
G1 X64.074 Y89.013 E.0155
G1 X64.6 Y89.092 E.01666
G1 X64.999 Y89.278 E.0138
G1 X65.335 Y89.56 E.01379
G1 X65.588 Y89.921 E.01379
G1 X65.738 Y90.334 E.01379
G1 X65.776 Y90.772 E.01379
G1 X65.7 Y91.205 E.01379
G1 X65.514 Y91.604 E.01379
G1 X65.231 Y91.941 E.01379
G1 X64.871 Y92.193 E.01379
G1 X64.457 Y92.344 E.01379
G1 X64.019 Y92.382 E.01379
G1 X63.586 Y92.305 E.01379
G1 X63.187 Y92.119 E.01379
G1 X62.85 Y91.837 E.01379
G1 X62.598 Y91.476 E.01379
G1 X62.494 Y91.189 E.00959
G1 X62.822 Y91.014 F9000
;TYPE:External perimeter
G1 F1200
G1 X62.784 Y90.67 E.01083
G1 X62.843 Y90.315 E.01128
G1 X62.971 Y90.022 E.01003
G1 X63.23 Y89.72 E.01247
G1 X63.46 Y89.552 E.00893
G1 X63.73 Y89.44 E.00919
G1 X64.092 Y89.391 E.01145
G1 X64.455 Y89.44 E.01149
G1 X64.769 Y89.577 E.01073
G1 X65.036 Y89.79 E.01072
G1 X65.239 Y90.065 E.01072
G1 X65.364 Y90.383 E.01072
G1 X65.402 Y90.723 E.01072
G1 X65.351 Y91.061 E.01072
G1 X65.215 Y91.374 E.01072
G1 X65.001 Y91.642 E.01072
G1 X64.726 Y91.845 E.01072
G1 X64.408 Y91.97 E.01072
G1 X64.068 Y92.008 E.01072
G1 X63.73 Y91.957 E.01072
G1 X63.417 Y91.82 E.01072
G1 X63.15 Y91.607 E.01072
G1 X62.947 Y91.332 E.01072
G1 X62.844 Y91.069 E.00884
G1 X62.49 Y90.917 F9000
G1 E-3.5 F3600
;WIPE_START
G1 F7200
G1 X62.784 Y90.67 E-.19174
G1 X62.843 Y90.315 E-.17086
G1 X62.971 Y90.022 E-.15192
G1 X63.23 Y89.72 E-.18886
G1 X63.46 Y89.552 E-.13527
G1 X63.73 Y89.44 E-.13919
G1 X64.092 Y89.391 E-.17347
G1 X64.455 Y89.44 E-.17403
G1 X64.648 Y89.524 E-.09967
;WIPE_END
G1 E-.075 F3600
G1 X63.484 Y53.5 F9000
G1 E5 F2400
;TYPE:Perimeter
G1 F1200
G1 X63.619 Y53.453 E.00449
G1 X64.177 Y53.408 E.01755
G1 X64.688 Y53.477 E.01619
G1 X65.243 Y53.707 E.01883
G1 X65.719 Y54.072 E.01883
G1 X66.085 Y54.548 E.01883
G1 X66.315 Y55.103 E.01883
G1 X66.393 Y55.698 E.01883
G1 X66.315 Y56.294 E.01883
G1 X66.085 Y56.849 E.01883
G1 X65.69 Y57.353 E.02008
G1 X65.238 Y57.693 E.01774
G1 X64.745 Y57.903 E.0168
G1 X64.216 Y57.991 E.01682
G1 X63.619 Y57.944 E.01879
G1 X63.054 Y57.745 E.01879
G1 X62.605 Y57.441 E.017
G1 X62.385 Y57.232 E.0095
G1 X62.047 Y56.738 E.01878
G1 X61.847 Y56.173 E.01879
G1 X61.801 Y55.575 E.01879
G1 X61.911 Y54.986 E.01879
G1 X62.17 Y54.446 E.01879
G1 X62.559 Y53.991 E.01879
G1 X63.054 Y53.652 E.01879
G1 X63.427 Y53.52 E.01242
G1 X63.596 Y53.853 F9000
G1 F1200
G1 X63.668 Y53.827 E.00239
G1 X64.134 Y53.782 E.01467
G1 X64.661 Y53.865 E.01672
G1 X65.116 Y54.074 E.01572
G1 X65.502 Y54.394 E.01571
G1 X65.791 Y54.803 E.01571
G1 X65.965 Y55.273 E.01571
G1 X66.011 Y55.772 E.01571
G1 X65.927 Y56.266 E.01571
G1 X65.717 Y56.721 E.01571
G1 X65.397 Y57.107 E.01571
G1 X64.988 Y57.397 E.01571
G1 X64.518 Y57.57 E.01571
G1 X64.019 Y57.617 E.01571
G1 X63.525 Y57.532 E.01571
G1 X63.07 Y57.323 E.01571
G1 X62.684 Y57.003 E.01571
G1 X62.395 Y56.594 E.01571
G1 X62.221 Y56.124 E.01571
G1 X62.175 Y55.625 E.01571
G1 X62.259 Y55.131 E.01571
G1 X62.469 Y54.675 E.01571
G1 X62.789 Y54.29 E.01571
G1 X63.198 Y54 E.01571
G1 X63.54 Y53.874 E.01144
G1 X63.717 Y54.2 F9000
;TYPE:External perimeter
G1 F1200
G1 X64.091 Y54.157 E.01179
G1 X64.516 Y54.213 E.01346
G1 X64.886 Y54.373 E.01265
G1 X65.202 Y54.624 E.01264
G1 X65.443 Y54.948 E.01264
G1 X65.591 Y55.323 E.01264
G1 X65.637 Y55.723 E.01264
G1 X65.578 Y56.122 E.01264
G1 X65.418 Y56.492 E.01264
G1 X65.122 Y56.843 E.01439
G1 X64.844 Y57.048 E.01085
G1 X64.469 Y57.197 E.01264
G1 X64.068 Y57.243 E.01264
G1 X63.669 Y57.184 E.01264
G1 X63.3 Y57.024 E.01264
G1 X62.984 Y56.773 E.01264
G1 X62.743 Y56.449 E.01264
G1 X62.595 Y56.074 E.01264
G1 X62.549 Y55.674 E.01264
G1 X62.608 Y55.275 E.01264
G1 X62.768 Y54.905 E.01264
G1 X63.018 Y54.589 E.01264
G1 X63.342 Y54.349 E.01264
G1 X63.661 Y54.222 E.01076
G1 X63.82 Y53.839 F9000
G1 E-3.5 F3600
;WIPE_START
G1 F7200
G1 X64.091 Y54.157 E-.20631
G1 X64.516 Y54.213 E-.20396
G1 X64.886 Y54.373 E-.1916
G1 X65.202 Y54.624 E-.19153
G1 X65.443 Y54.948 E-.19151
G1 X65.591 Y55.323 E-.19152
G1 X65.637 Y55.723 E-.19153
G1 X65.62 Y55.842 E-.05704
;WIPE_END
G1 E-.075 F3600
G1 X65.568 Y51.153 F9000
G1 E5 F2400
;TYPE:Solid infill
;WIDTH:0.420905
G1 F1200
G1 X68.325 Y53.91 E.12255
G1 X68.569 Y54.499 E.02004
G1 X68.598 Y54.717 E.00692
G1 X65.074 Y51.194 E.15662
G1 X64.458 Y51.113 E.01951
G1 X68.679 Y55.333 E.18758
G1 X68.727 Y55.698 E.01158
G1 X68.702 Y55.89 E.00609
G1 X63.908 Y51.097 E.21307
G1 X63.433 Y51.156 E.01505
G1 X68.639 Y56.363 E.23142
G1 X68.577 Y56.835 E.01497
G1 X66.486 Y54.744 E.09295
G1 X66.337 Y54.402 E.01173
G1 X65.925 Y53.866 E.02123
G1 X65.389 Y53.455 E.02123
G1 X65.047 Y53.306 E.01173
G1 X62.958 Y51.216 E.09289
G1 X62.89 Y51.224 E.00215
G1 X62.566 Y51.358 E.01103
G1 X64.345 Y53.137 E.07906
G1 X64.1 Y53.111 E.00774
G1 X63.81 Y53.137 E.00915
G1 X62.188 Y51.515 E.07209
G1 X61.81 Y51.671 E.01286
G1 X63.359 Y53.22 E.06884
G1 X62.975 Y53.371 E.01296
G1 X61.501 Y51.897 E.06552
G1 X61.198 Y52.129 E.01198
G1 X62.636 Y53.567 E.06391
G1 X62.339 Y53.804 E.01195
G1 X60.896 Y52.361 E.06414
G1 X60.816 Y52.422 E.00314
G1 X60.645 Y52.645 E.00884
G1 X62.089 Y54.089 E.06419
G1 X61.857 Y54.392 E.01198
G1 X60.413 Y52.947 E.06419
G1 X60.181 Y53.25 E.01198
G1 X61.692 Y54.761 E.06718
G1 X61.64 Y54.881 E.00409
G1 X61.564 Y55.167 E.00932
G1 X59.992 Y53.595 E.06987
G1 X59.835 Y53.973 E.01286
G1 X61.508 Y55.646 E.07435
G1 X61.574 Y56.246 E.01899
G1 X59.549 Y54.221 E.09002
G1 E-3.5 F3600
;WIPE_START
G1 F7200
G1 X61.574 Y56.246 E-1.36047
G1 X61.559 Y56.111 E-.06453
;WIPE_END
G1 E-.075 F3600
G1 X66.464 Y55.256 F9000
G1 E5 F2400
G1 F1200
G1 X68.433 Y57.226 E.08753
G1 X68.277 Y57.604 E.01286
G1 X66.648 Y55.975 E.07239
G1 X66.596 Y56.368 E.01246
G1 X66.571 Y56.433 E.00217
G1 X68.12 Y57.982 E.06885
G1 X67.896 Y58.292 E.01204
G1 X66.42 Y56.817 E.06559
G1 X66.224 Y57.155 E.0123
G1 X67.666 Y58.596 E.06406
G1 X67.435 Y58.9 E.01199
G1 X65.984 Y57.449 E.0645
G1 X65.889 Y57.566 E.00472
G1 X65.704 Y57.704 E.00725
G1 X67.205 Y59.205 E.06669
G1 X67.147 Y59.281 E.00301
G1 X67.029 Y59.563 E.00962
G1 X65.399 Y57.934 E.07244
G1 X65.03 Y58.099 E.01271
G1 X66.981 Y60.05 E.08672
G1 X66.981 Y60.585 E.0168
G1 X64.624 Y58.228 E.10476
G1 X64.146 Y58.284 E.01515
G1 X66.981 Y61.119 E.12604
G1 X66.981 Y61.654 E.0168
G1 X63.308 Y57.98 E.16329
G1 E-3.5 F3600
;WIPE_START
G1 F7200
G1 X65.429 Y60.102 E-1.425
;WIPE_END
G1 E-.075 F3600
G1 X67.151 Y62.358 F9000
G1 E5 F2400
G1 F1200
G1 X59.579 Y54.786 E.33656
G1 X59.517 Y55.259 E.01497
G1 X66.982 Y62.723 E.33178
G1 X66.982 Y63.258 E.0168
G1 X59.465 Y55.741 E.33411
G1 X59.546 Y56.357 E.01951
G1 X66.982 Y63.793 E.33051
G1 X66.982 Y64.327 E.0168
G1 X59.663 Y57.008 E.32532
G1 X60.041 Y57.921 E.03104
G1 X66.982 Y64.862 E.30852
G1 X66.982 Y65.397 E.0168
G1 X61.162 Y59.577 E.25867
G1 X61.203 Y59.821 E.00778
G1 X61.203 Y60.152 E.01039
G1 X66.982 Y65.931 E.25688
G1 X66.982 Y66.466 E.0168
G1 X61.203 Y60.686 E.25689
G1 X61.203 Y61.221 E.0168
G1 X66.982 Y67 E.25689
G1 X66.982 Y67.535 E.0168
G1 X61.203 Y61.756 E.25689
G1 X61.203 Y62.29 E.0168
G1 X66.982 Y68.07 E.25689
G1 X66.983 Y68.604 E.0168
G1 X61.203 Y62.825 E.25689
G1 X61.203 Y63.359 E.0168
G1 X66.983 Y69.139 E.2569
G1 X66.983 Y69.674 E.0168
